X: 25810
T: Mason's Apron, The
R: reel
M: 4/4
K: Gmajor
dc|:BG G2 GAGE|DEGA B2 AG|cA A2 ABAG|ABcd e2 dc|
BG G2 GAGE|DEGA B2 AG|ABcd efge|dcBA G2 dc:|
|:BGdG eGdG|BGdG edcB|cAeA fAeA|cAeA fedc|
BGdG eGdG|BGdG edcB|ABcd efge|dcBA G2:|

